symbolic/32x32/apps/com.gitlab.bitseater.meteo.svg

<svg xmlns="http://www.w3.org/2000/svg" width="32" height="32" version="1">
 <rect style="opacity:0.2" width="28" height="28" x="2" y="3" rx="14" ry="14"/>
 <rect style="fill:#9f63e0" width="28" height="28" x="2" y="2" rx="14" ry="14"/>
 <path style="fill:#393e47;fill-rule:evenodd" d="M 16 5 C 14.338001 5 13 6.3381664 13 8 L 13 14.751953 C 13 14.772203 13.005059 14.790287 13.005859 14.810547 C 11.14865 15.879889 10.002912 17.8571 10 20 C 10 23.313376 12.686292 26 16 26 C 19.313709 26.000001 22 23.313377 22 20 C 21.9981 17.856061 20.852241 15.876516 18.994141 14.806641 C 18.994891 14.787891 19 14.770693 19 14.751953 L 19 8 C 19 6.3381664 17.661999 5 16 5 z M 16 7 C 16.554 7 17 7.446 17 8 L 17 16 C 17 16.450125 16.700533 16.81517 16.292969 16.941406 C 16.198916 16.970538 16.103875 17 16 17 C 15.896125 17 15.801084 16.970538 15.707031 16.941406 C 15.299467 16.81517 15 16.450125 15 16 L 15 8 C 15 7.446 15.446 7 16 7 z"/>
 <rect style="fill:#60b8fe" width="2" height="10" x="15" y="11" rx="1" ry="1"/>
 <ellipse style="opacity:0.2" cx="16" cy="21" rx="4" ry="4"/>
 <ellipse style="fill:#60b8fe" cx="16" cy="20" rx="4" ry="4"/>
 <path style="fill:#ffffff;opacity:0.1" d="M 16 2 C 8.244 2 2 8.244 2 16 C 2 16.168842 2.0195214 16.33264 2.0253906 16.5 C 2.2891326 8.9794325 8.4128418 3 16 3 C 23.587158 3 29.710867 8.9794325 29.974609 16.5 C 29.980479 16.33264 30 16.168842 30 16 C 30 8.244 23.756 2 16 2 z"/>
</svg>

<svg xmlns="http://www.w3.org/2000/svg" width="32" height="32" version="1"><rect style="opacity:.2" width="28" height="28" x="2" y="3" rx="14" ry="14"/><rect style="fill:#9f63e0" width="28" height="28" x="2" y="2" rx="14" ry="14"/><path style="fill:#393e47;fill-rule:evenodd" d="M16 5c-1.662 0-3 1.338-3 3v6.752c0 .02.005.038.006.059A5.997 5.997 0 0 0 10 20a6 6 0 0 0 12 0 5.999 5.999 0 0 0-3.006-5.193c0-.02.006-.036.006-.055V8c0-1.662-1.338-3-3-3zm0 2c.554 0 1 .446 1 1v8c0 .45-.3.815-.707.941-.094.03-.19.059-.293.059-.104 0-.199-.03-.293-.059A.985.985 0 0 1 15 16V8c0-.554.446-1 1-1z"/><rect style="fill:#60b8fe" width="2" height="10" x="15" y="11" rx="1" ry="1"/><circle style="opacity:.2" cx="16" cy="21" r="4"/><circle style="fill:#60b8fe" cx="16" cy="20" r="4"/><path style="fill:#fff;opacity:.1" d="M16 2C8.244 2 2 8.244 2 16c0 .169.02.333.025.5C2.29 8.98 8.413 3 16 3s13.71 5.98 13.975 13.5c.005-.167.025-.331.025-.5 0-7.756-6.244-14-14-14z"/></svg>
